X:1
T:Turpin Hero
M:4/4
L:1/4
K:G
 B,| E E F F| GG/2-A/2 B B,| E E F F| G G/2A/2 B|G/2-A/2| B B d d/2d/2|\
 B B d3/2 d/2| e B B G|A/2-B/2A/2-F/2| D2| E2 B2| A F A D| E2 B2| AF/2-G/2 E||\


